X:1
T:James Gibb editions
T:Now the light of heaven is stealing - Barnby
%%score [ ( 1 2 ) ( 3 4 ) ]
L:1/8
Q:1/4=66
M:4/4
K:Eb
V:1 treble nm="Midi_74"
V:2 treble 
V:3 bass nm="Midi_74"
V:4 bass 
V:1
"^87. 87. 88""^Now the light of heaven is stealing""^Joseph Barnby\n(1838-96)"!mp! G2 G2 G2 G2 | %1
 B2 A2 G2 F2 || E2 E2 c2 B2 | A2 G2 F4 ||"^cresc." F2 B2 B2 =A2 | B2 c2 d2 d2 || %6
[M:4/4] d2 =B2 G2 G2 | _B2 =A2 B4 ||!p! A2 G2 F2 E2 | D2 C2 C2 !fermata!B,2 || G2 B2 EF GA | %11
 G2 E2 F4 | E8 || A4 G4 |] %14
V:2
 E2 F2 E2 =E2 | =E2 F2 _E2 D2 || E2 _D2 C2 =E2 | F2 E2 D4 || F2 =E2 F2 F2 | F2 F2 F2 ^F2 || %6
[M:4/4] G2 F2 F2 E2 | D2 E2 D4 || E2 D2 C2 B,2 | A,2 A,2 A,2 B,2 || B,2 _D2 C2 E2 | E2 E2 D4 | %12
 E8 || E4 E4 |] %14
V:3
 B,2 =B,2 C2 _B,2 | G,2 A,2 B,2 B,2 || G,2 G,2 A,2 G,2 | F,2 C2 F,4 || B,2 B,2 C2 F2 | %5
 F2 E2 D2 C2 ||[M:4/4] =B,2 D2 D2 C2 | B,2 C2 B,4 || C2 B,2 A,2 G,2 | F,2 F,2 F,2 F,2 || %10
!mp! E,2 E,2 E,2 C2 | B,2 G,2 A,4 | G,8 || C4 B,4 |] %14
V:4
 E,2 D,2 C,2 C,2 | F,2 F,2 B,,2 B,,2 || C,2 B,,2 A,,2 C,2 | F,2 A,,2 B,,4 || D,2 G,2 F,2 F,2 | %5
 G,2 =A,2 B,2 A,2 ||[M:4/4] G,2 G,2 C,2 E,2 | F,2 F,2 B,,4 || B,,2 B,,2 B,,2 B,,2 | %9
 F,2 E,2 E,2 !fermata!D,2 || E,2 G,,2 A,,2 F,,2 | B,,2 B,,2 B,,4 | E,8 || A,,4 E,4 |] %14

